images/logo-horizontal.svg

<?xml version="1.0" encoding="UTF-8"?>
<svg width="330px" height="32px" viewBox="0 0 330 32" version="1.1" xmlns="http://www.w3.org/2000/svg" xmlns:xlink="http://www.w3.org/1999/xlink">
    <!-- Generator: Sketch 51.3 (57544) - http://www.bohemiancoding.com/sketch -->
    <title>logo-horizontal</title>
    <desc>Created with Sketch.</desc>
    <defs></defs>
    <g id="logo-horizontal" stroke="none" stroke-width="1" fill="none" fill-rule="evenodd">
        <path d="M33.7451586,22.7123696 C35.0265005,22.7123696 36.5000437,22.1803279 37.4930837,21.3353204 L40.6964385,24.4962742 C39.2228953,25.9672131 36.3719095,27 33.9053263,27 C28.7799587,27 25,23.4634873 25,18.4873323 C25,13.5737705 28.6518245,10.0685544 33.6490579,10.0685544 C38.9025598,10.0685544 41.9777804,13.8241431 41.9777804,19.9895678 L30.1574012,19.9895678 C30.669938,21.6169896 31.9833135,22.7123696 33.7451586,22.7123696 Z M33.7451586,14.3248882 C32.1114476,14.3248882 30.7980722,15.2637854 30.2214683,16.7660209 L36.9485134,16.7660209 C36.5000437,15.295082 35.3788695,14.3248882 33.7451586,14.3248882 Z M50.5414156,27 C47.7544969,27 44.8714776,26.0923994 42.8533641,24.5588674 L45.0316453,21.147541 C46.5692556,22.2116244 48.6834698,22.9940387 50.6695498,22.9940387 C51.854791,22.9940387 52.5274955,22.6184799 52.5274955,21.9925484 C52.5274955,21.2101341 51.4383549,20.8971684 49.804644,20.5216095 C46.6012892,19.8017884 43.6221692,18.9880775 43.5901357,15.4828614 C43.5901357,12.3845007 46.1848531,10.0685544 50.2851472,10.0685544 C52.7517304,10.0685544 55.1542465,10.9135618 57.0121923,12.1341282 L55.0261123,15.6080477 C53.5846026,14.7004471 51.7907239,14.0119225 50.2851472,14.0119225 C49.2921072,14.0119225 48.5873691,14.4500745 48.5873691,14.9508197 C48.5873691,15.6706408 49.2921072,15.8271237 51.2461536,16.3278689 C54.19324,17.0163934 57.4926955,17.9552906 57.4926955,21.6482861 C57.4926955,24.9031297 54.8018774,27 50.5414156,27 Z M67.9142764,27 C62.9170429,27 58.7206482,23.119225 58.7206482,18.5186289 C58.7206482,13.9180328 62.9170429,10.0685544 67.9142764,10.0685544 C72.9115099,10.0685544 77.1079047,13.9180328 77.1079047,18.5186289 C77.1079047,23.119225 72.9115099,27 67.9142764,27 Z M67.9142764,22.5871833 C70.1245912,22.5871833 71.982537,20.709389 71.982537,18.5186289 C71.982537,16.3278689 70.1245912,14.4813711 67.9142764,14.4813711 C65.7039616,14.4813711 63.8460158,16.3278689 63.8460158,18.5186289 C63.8460158,20.709389 65.7039616,22.5871833 67.9142764,22.5871833 Z M93.3693062,26.6244411 L86.1937914,10.4441133 L91.7996623,10.4441133 L95.8999565,20.5529061 L99.9041499,10.4441133 L105.510021,10.4441133 L98.3985732,26.6244411 L93.3693062,26.6244411 Z M113.849421,22.7123696 C115.130763,22.7123696 116.604306,22.1803279 117.597346,21.3353204 L120.800701,24.4962742 C119.327158,25.9672131 116.476172,27 114.009589,27 C108.884221,27 105.104263,23.4634873 105.104263,18.4873323 C105.104263,13.5737705 108.756087,10.0685544 113.753321,10.0685544 C119.006822,10.0685544 122.082043,13.8241431 122.082043,19.9895678 L110.261664,19.9895678 C110.774201,21.6169896 112.087576,22.7123696 113.849421,22.7123696 Z M113.849421,14.3248882 C112.21571,14.3248882 110.902335,15.2637854 110.325731,16.7660209 L117.052776,16.7660209 C116.604306,15.295082 115.483132,14.3248882 113.849421,14.3248882 Z M141.643863,22.0551416 L142.733004,25.466468 C141.739964,26.3740686 140.106253,27 138.696777,27 C135.589522,27 133.411241,24.8405365 133.411241,21.804769 L133.411241,14.6691505 L131.23296,14.6691505 L131.23296,10.4441133 L133.411241,10.4441133 L133.411241,6 L138.600676,6 L138.600676,10.4441133 L142.028266,10.4441133 L142.028266,14.6691505 L138.600676,14.6691505 L138.600676,20.8345753 C138.600676,21.8673621 139.241347,22.5871833 140.106253,22.5871833 C140.71489,22.5871833 141.323527,22.3681073 141.643863,22.0551416 Z M153.058484,27 C148.06125,27 143.864856,23.119225 143.864856,18.5186289 C143.864856,13.9180328 148.06125,10.0685544 153.058484,10.0685544 C158.055717,10.0685544 162.252112,13.9180328 162.252112,18.5186289 C162.252112,23.119225 158.055717,27 153.058484,27 Z M153.058484,22.5871833 C155.268799,22.5871833 157.126744,20.709389 157.126744,18.5186289 C157.126744,16.3278689 155.268799,14.4813711 153.058484,14.4813711 C150.848169,14.4813711 148.990223,16.3278689 148.990223,18.5186289 C148.990223,20.709389 150.848169,22.5871833 153.058484,22.5871833 Z M178.940932,26.7322578 C176.154013,26.7322578 173.270994,25.8246572 171.25288,24.2911252 L173.431161,20.8797988 C174.968772,21.9438823 177.082986,22.7262966 179.069066,22.7262966 C180.254307,22.7262966 180.927012,22.3507377 180.927012,21.7248063 C180.927012,20.942392 179.837871,20.6294262 178.20416,20.2538674 C175.000805,19.5340462 172.021685,18.7203353 171.989652,15.2151192 C171.989652,12.1167586 174.584369,9.80081222 178.684663,9.80081222 C181.151247,9.80081222 183.553763,10.6458197 185.411708,11.866386 L183.425628,15.3403055 C181.984119,14.4327049 180.19024,13.7441803 178.684663,13.7441803 C177.691623,13.7441803 176.986885,14.1823323 176.986885,14.6830775 C176.986885,15.4028987 177.691623,15.5593815 179.64567,16.0601267 C182.592756,16.7486513 185.892212,17.6875484 185.892212,21.380544 C185.892212,24.6353875 183.201394,26.7322578 178.940932,26.7322578 Z M195.673122,9.80081222 C199.933583,9.80081222 203.136938,12.4297243 203.136938,16.7486513 L203.136938,26.356699 L197.91547,26.356699 L197.91547,24.9796498 C196.762262,26.1063264 195.032451,26.7322578 193.334673,26.7322578 C189.810982,26.7322578 187.024064,24.6353875 187.024064,21.5683234 C187.024064,18.4073696 190.131318,16.185313 194.039411,16.185313 C195.256685,16.185313 196.634128,16.4669821 197.91547,16.9677273 L197.91547,16.7486513 C197.91547,15.0273398 196.570061,13.7754769 194.295679,13.7754769 C192.726035,13.7754769 191.540794,14.2449255 190.131318,14.9647466 L188.43354,11.64731 C190.739955,10.5206334 193.110438,9.80081222 195.673122,9.80081222 Z M194.648048,23.4774143 C196.249725,23.4774143 197.691235,22.7262966 197.91547,21.5057303 L197.91547,19.7844188 C197.082598,19.4714531 195.92939,19.252377 194.808216,19.252377 C193.334673,19.252377 192.181465,20.1599776 192.181465,21.4118405 C192.181465,22.6637034 193.206538,23.4774143 194.648048,23.4774143 Z M209.602376,26.356699 L202.426861,10.1763711 L208.032732,10.1763711 L212.133026,20.2851639 L216.13722,10.1763711 L221.743091,10.1763711 L214.631643,26.356699 L209.602376,26.356699 Z M230.082491,22.4446274 C231.363833,22.4446274 232.837376,21.9125857 233.830416,21.0675782 L237.033771,24.228532 C235.560228,25.6994709 232.709242,26.7322578 230.242659,26.7322578 C225.117291,26.7322578 221.337332,23.1957452 221.337332,18.2195902 C221.337332,13.3060283 224.989157,9.80081222 229.98639,9.80081222 C235.239892,9.80081222 238.315113,13.5564009 238.315113,19.7218256 L226.494734,19.7218256 C227.00727,21.3492474 228.320646,22.4446274 230.082491,22.4446274 Z M230.082491,14.0571461 C228.44878,14.0571461 227.135405,14.9960432 226.558801,16.4982787 L233.285846,16.4982787 C232.837376,15.0273398 231.716202,14.0571461 230.082491,14.0571461 Z M270.287263,26.356699 L263.111748,10.1763711 L268.717619,10.1763711 L272.817913,20.2851639 L276.822107,10.1763711 L282.427978,10.1763711 L275.31653,26.356699 L270.287263,26.356699 Z M290.767378,22.4446274 C292.04872,22.4446274 293.522263,21.9125857 294.515303,21.0675782 L297.718658,24.228532 C296.245115,25.6994709 293.394129,26.7322578 290.927546,26.7322578 C285.802178,26.7322578 282.02222,23.1957452 282.02222,18.2195902 C282.02222,13.3060283 285.674044,9.80081222 290.671278,9.80081222 C295.924779,9.80081222 299,13.5564009 299,19.7218256 L287.179621,19.7218256 C287.692158,21.3492474 289.005533,22.4446274 290.767378,22.4446274 Z M290.767378,14.0571461 C289.133667,14.0571461 287.820292,14.9960432 287.243688,16.4982787 L293.970733,16.4982787 C293.522263,15.0273398 292.401089,14.0571461 290.767378,14.0571461 Z" id="Resolve-to-save-live" fill="#364BC9"></path>
        <path d="M5.06897796,15.1193595 L14.3631373,15.1193595 C16.2775309,15.1193595 17.6403196,14.0946143 17.6403196,12.5574964 C17.6403196,11.0203785 16.2775309,9.99563319 14.3631373,9.99563319 L5.06897796,9.99563319 L5.06897796,5 L14.8822949,5 C19.7818446,5 23.351053,8.1062591 23.351053,12.5574964 C23.351053,15.7598253 21.5015541,18.2896652 18.6137401,19.4425036 L24,27 L17.7052143,27 L12.8056646,20.1149927 L10.0800873,20.1149927 L10.0800873,27 L5.06897796,27 L5.06897796,15.1193595 Z M0,10.0397437 L5.06502091,10.0397437 L5.06502091,15.0794874 L0,15.0794874 L0,10.0397437 Z" id="Combined-Shape" fill="#364BC9"></path>
        <polygon id="Path" fill="#364BC9" points="79 27 79 5 84 5 84 27"></polygon>
        <polygon id="Path" fill="#364BC9" points="247 27 247 4 252 4 252 27"></polygon>
        <polygon id="Path" fill="#364BC9" points="256 27 256 11 261 11 261 27"></polygon>
        <path d="M306.877462,27 C304.021882,27 301.067834,26.0887246 299,24.5489834 L301.231947,21.1238447 C302.80744,22.1922366 304.973742,22.9778189 307.008753,22.9778189 C308.223195,22.9778189 308.912473,22.6007394 308.912473,21.9722736 C308.912473,21.1866913 307.796499,20.8724584 306.122538,20.4953789 C302.840263,19.7726433 299.787746,18.9556377 299.754923,15.4362292 C299.754923,12.3253235 302.413567,10 306.61488,10 C309.142232,10 311.603939,10.8484288 313.507659,12.0739372 L311.472648,15.5619224 C309.995624,14.650647 308.157549,13.9593346 306.61488,13.9593346 C305.597374,13.9593346 304.875274,14.3992606 304.875274,14.9020333 C304.875274,15.6247689 305.597374,15.7818854 307.599562,16.284658 C310.619256,16.9759704 314,17.9186691 314,21.6266174 C314,24.8946396 311.242888,27 306.877462,27 Z" id="Path" fill="#364BC9"></path>
        <rect id="Period" fill="#364BC9" x="316" y="22" width="5" height="5"></rect>
        <rect id="Period" fill="#364BC9" x="256" y="4" width="5" height="5"></rect>
    </g>
</svg>

<?xml version="1.0" encoding="utf-8"?>
<!-- Generator: Adobe Illustrator 22.1.0, SVG Export Plug-In . SVG Version: 6.00 Build 0)  -->
<svg version="1.1" id="Layer_1" xmlns="http://www.w3.org/2000/svg" xmlns:xlink="http://www.w3.org/1999/xlink" x="0px" y="0px"
	 viewBox="0 0 330 32" style="enable-background:new 0 0 330 32;" xml:space="preserve">
<style type="text/css">
	.st0{fill:#364BC9;}
	.st1{fill:#DEDFE0;}
</style>
<title>logo-horizontal</title>
<desc>Created with Sketch.</desc>
<g id="logo-horizontal">
	<path id="Resolve-to-save-live" class="st0" d="M33.7,22.7c1.3,0,2.8-0.5,3.7-1.4l3.2,3.2C39.2,26,36.4,27,33.9,27
		c-5.1,0-8.9-3.5-8.9-8.5c0-4.9,3.7-8.4,8.6-8.4c5.3,0,8.3,3.8,8.3,9.9H30.2C30.7,21.6,32,22.7,33.7,22.7z M33.7,14.3
		c-1.6,0-2.9,0.9-3.5,2.4h6.7C36.5,15.3,35.4,14.3,33.7,14.3z M50.5,27c-2.8,0-5.7-0.9-7.7-2.4l2.2-3.4c1.5,1.1,3.7,1.8,5.6,1.8
		c1.2,0,1.9-0.4,1.9-1c0-0.8-1.1-1.1-2.7-1.5c-3.2-0.7-6.2-1.5-6.2-5c0-3.1,2.6-5.4,6.7-5.4c2.5,0,4.9,0.8,6.7,2.1l-2,3.5
		c-1.4-0.9-3.2-1.6-4.7-1.6c-1,0-1.7,0.4-1.7,0.9c0,0.7,0.7,0.9,2.7,1.4c2.9,0.7,6.2,1.6,6.2,5.3C57.5,24.9,54.8,27,50.5,27z
		 M67.9,27c-5,0-9.2-3.9-9.2-8.5s4.2-8.5,9.2-8.5s9.2,3.8,9.2,8.5S72.9,27,67.9,27z M67.9,22.6c2.2,0,4.1-1.9,4.1-4.1s-1.9-4-4.1-4
		s-4.1,1.8-4.1,4S65.7,22.6,67.9,22.6z M93.4,26.6l-7.2-16.2h5.6l4.1,10.1l4-10.1h5.6l-7.1,16.2H93.4z M113.8,22.7
		c1.3,0,2.8-0.5,3.7-1.4l3.2,3.2c-1.5,1.5-4.3,2.5-6.8,2.5c-5.1,0-8.9-3.5-8.9-8.5c0-4.9,3.7-8.4,8.6-8.4c5.3,0,8.3,3.8,8.3,9.9
		h-11.8C110.8,21.6,112.1,22.7,113.8,22.7z M113.8,14.3c-1.6,0-2.9,0.9-3.5,2.4h6.7C116.6,15.3,115.5,14.3,113.8,14.3z M141.6,22.1
		l1.1,3.4c-1,0.9-2.6,1.5-4,1.5c-3.1,0-5.3-2.2-5.3-5.2v-7.1h-2.2v-4.2h2.2V6h5.2v4.4h3.4v4.2h-3.4v6.2c0,1,0.6,1.8,1.5,1.8
		C140.7,22.6,141.3,22.4,141.6,22.1z M153.1,27c-5,0-9.2-3.9-9.2-8.5s4.2-8.5,9.2-8.5c5,0,9.2,3.8,9.2,8.5S158.1,27,153.1,27z
		 M153.1,22.6c2.2,0,4.1-1.9,4.1-4.1s-1.9-4-4.1-4s-4.1,1.8-4.1,4S150.8,22.6,153.1,22.6z M178.9,26.7c-2.8,0-5.7-0.9-7.7-2.4
		l2.2-3.4c1.5,1.1,3.7,1.8,5.6,1.8c1.2,0,1.9-0.4,1.9-1c0-0.8-1.1-1.1-2.7-1.5c-3.2-0.7-6.2-1.5-6.2-5c0-3.1,2.6-5.4,6.7-5.4
		c2.5,0,4.9,0.8,6.7,2.1l-2,3.5c-1.4-0.9-3.2-1.6-4.7-1.6c-1,0-1.7,0.4-1.7,0.9c0,0.7,0.7,0.9,2.7,1.4c2.9,0.7,6.2,1.6,6.2,5.3
		C185.9,24.6,183.2,26.7,178.9,26.7z M195.7,9.8c4.3,0,7.5,2.6,7.5,6.9v9.6h-5.2V25c-1.2,1.1-2.9,1.8-4.6,1.8
		c-3.5,0-6.3-2.1-6.3-5.2c0-3.2,3.1-5.4,7-5.4c1.2,0,2.6,0.3,3.9,0.8v-0.2c0-1.7-1.3-3-3.6-3c-1.6,0-2.8,0.5-4.2,1.2l-1.7-3.3
		C190.7,10.5,193.1,9.8,195.7,9.8z M194.6,23.5c1.6,0,3-0.8,3.3-2v-1.7c-0.8-0.3-2-0.5-3.1-0.5c-1.5,0-2.6,0.9-2.6,2.2
		S193.2,23.5,194.6,23.5z M209.6,26.4l-7.2-16.2h5.6l4.1,10.1l4-10.1h5.6l-7.1,16.2H209.6z M230.1,22.4c1.3,0,2.8-0.5,3.7-1.4
		l3.2,3.2c-1.5,1.5-4.3,2.5-6.8,2.5c-5.1,0-8.9-3.5-8.9-8.5c0-4.9,3.7-8.4,8.6-8.4c5.3,0,8.3,3.8,8.3,9.9h-11.8
		C227,21.3,228.3,22.4,230.1,22.4z M230.1,14.1c-1.6,0-2.9,0.9-3.5,2.4h6.7C232.8,15,231.7,14.1,230.1,14.1z M270.3,26.4l-7.2-16.2
		h5.6l4.1,10.1l4-10.1h5.6l-7.1,16.2H270.3z M290.8,22.4c1.3,0,2.8-0.5,3.7-1.4l3.2,3.2c-1.5,1.5-4.3,2.5-6.8,2.5
		c-5.1,0-8.9-3.5-8.9-8.5c0-4.9,3.7-8.4,8.6-8.4c5.3,0,8.3,3.8,8.3,9.9h-11.8C287.7,21.3,289,22.4,290.8,22.4z M290.8,14.1
		c-1.6,0-2.9,0.9-3.5,2.4h6.7C293.5,15,292.4,14.1,290.8,14.1z"/>
	<path id="Combined-Shape" class="st0" d="M5.1,15.1h9.3c1.9,0,3.3-1,3.3-2.6S16.3,10,14.4,10H5.1V5h9.8c4.9,0,8.5,3.1,8.5,7.6
		c0,3.2-1.8,5.7-4.7,6.9L24,27h-6.3l-4.9-6.9h-2.7V27h-5V15.1z M0,10h5.1v5H0V10z"/>
	<polygon id="Path" class="st0" points="79,27 79,5 84,5 84,27 	"/>
	<polygon id="Path_1_" class="st0" points="247,27 247,4 252,4 252,27 	"/>
	<polygon id="Path_2_" class="st0" points="256,27 256,11 261,11 261,27 	"/>
	<path id="Path_3_" class="st0" d="M306.9,27c-2.9,0-5.8-0.9-7.9-2.5l2.2-3.4c1.6,1.1,3.7,1.9,5.8,1.9c1.2,0,1.9-0.4,1.9-1
		c0-0.8-1.1-1.1-2.8-1.5c-3.3-0.7-6.3-1.5-6.4-5.1c0-3.1,2.7-5.4,6.9-5.4c2.5,0,5,0.8,6.9,2.1l-2,3.5c-1.5-0.9-3.3-1.6-4.9-1.6
		c-1,0-1.7,0.4-1.7,0.9c0,0.7,0.7,0.9,2.7,1.4c3,0.7,6.4,1.6,6.4,5.3C314,24.9,311.2,27,306.9,27z"/>
	<rect id="Period" x="316" y="22" class="st0" width="5" height="5"/>
	<rect id="Period_1_" x="256" y="4" class="st0" width="5" height="5"/>
</g>
<rect x="-1" y="2.7" class="st1" width="324" height="26.8"/>
</svg>
